src/svg/chevron-circle-left.svg

<svg height="1000" width="1000.0" xmlns="http://www.w3.org/2000/svg">
    <path d="m500 984.4c-267.6 0-484.4-216.8-484.4-484.4s216.8-484.4 484.4-484.4 484.4 216.8 484.4 484.4-216.8 484.4-484.4 484.4z m-222.5-451.2l264.7 264.7c18.3 18.3 48 18.3 66.2 0l33.2-33.3c18.4-18.3 18.4-48 0-66.2l-198.4-198.4 198.4-198.4c18.4-18.4 18.4-48.1 0-66.3l-33.2-33.2c-18.4-18.3-48-18.3-66.2 0l-264.7 264.7c-18.3 18.4-18.3 48 0 66.4z" />
  </svg>

<svg height="1000" width="1000" xmlns="http://www.w3.org/2000/svg"><path d="M500 984.4C232.4 984.4 15.6 767.6 15.6 500S232.4 15.6 500 15.6 984.4 232.4 984.4 500 767.6 984.4 500 984.4zM277.5 533.2l264.7 264.7c18.3 18.3 48 18.3 66.2 0l33.2 -33.3c18.4 -18.3 18.4 -48 0 -66.2L443.2 500 641.6 301.6c18.4 -18.4 18.4 -48.1 0 -66.2l-33.2 -33.3c-18.4 -18.3 -48 -18.3 -66.2 0L277.5 466.8c-18.3 18.4 -18.3 48 0 66.4z"/></svg>
